!!!!SEGMENT: Snf0246-Salve_rex_aeternae_misericordiae.krn
!!!id: Snf0246
!!!AGN: Motet
!!!voices: 4
!!!COM: Ludwig Senfl
!!!OTL: Salve, rex aeternae misericordiae
**kern	**text	**kern	**text	**kern	**text
*part3	*part3	*part2	*part2	*part1	*part1
*staff3	*staff3	*staff2	*staff2	*staff1	*staff1
*I"Bassus	*	*I"Tenor	*	*I"Superius	*
*I'B	*	*I'T	*	*I'S	*
*clefF4	*	*clefGv2	*	*clefG2	*
*k[b-]	*	*k[b-]	*	*k[b-]	*
*F:	*	*F:	*	*F:	*
*M3/1	*	*M3/1	*	*M3/1	*
*met(O)	*	*met(O)	*	*met(O)	*
!!section: Versus 1: Salve, rex aeternae misericordiae
!!!OMD: Versus 1: Salve, rex aeternae misericordiae
!	!	!	!	!LO:TX:a:t=Altus not extant	!
1.D	Sal-	0.d	Sal-	1.dd	Sal-
2E	.	.	.	4cc	.
.	.	.	.	4b-y	.
2F	.	.	.	2a	.
2G	.	.	.	2b-y	.
=1	=1	=1	=1	=1	=1
1.C	.	0.c	.	1.cc	.
2D	.	.	.	4b-y	.
.	.	.	.	4a	.
2E	.	.	.	2g	.
2F	.	.	.	2a	.
=2	=2	=2	=2	=2	=2
2.BB-y	.	[0.d	.	2.b-y	.
4C	.	.	.	8aL	.
.	.	.	.	8gJ	.
2D	.	.	.	2f	.
2GG	.	.	.	1g	.
1D	.	.	.	.	.
.	.	.	.	2f#i	.
=3	=3	=3	=3	=3	=3
1GG	-ve,	0.d]	.	2g	-ve,
.	.	.	.	2b-y	[sal-
2r	.	.	.	2a	.
2.GG	[sal-	.	.	2.b-y	.
4AA	.	.	.	4cc	.
2BB-y	.	.	.	2dd	.
=4	=4	=4	=4	=4	=4
2.C	.	1G	-ve,	2.cc	.
4D	.	.	.	4b-y	.
2E	.	1r	.	2g	.
2F	.	.	.	1dd	.
2G	.	1r	.	.	.
2A	.	.	.	2cc#i	.
=5	=5	=5	=5	=5	=5
2D	.	0.d	Rex	2dd	-ve,]
1G	-ve,]	.	.	1b-y	Rex
4F	Rex,	.	.	4a	.
4E	.	.	.	4g	.
4D	.	.	.	2.a	.
4E	.	.	.	.	.
4F	.	.	.	.	.
4G	.	.	.	4b-y	.
=6	=6	=6	=6	=6	=6
2A	.	0.c	.	2cc	.
1F	.	.	.	1a	ae-
4E	[Rex]	.	.	4g	.
4D	.	.	.	4f	.
4C	.	.	.	2.g	.
4D	.	.	.	.	.
4E	.	.	.	.	.
4F	.	.	.	4a	.
=7	=7	=7	=7	=7	=7
1G	.	1B-y	ae-	1b-y	.
2.F	ae-	1A	.	1cc	.
4E	.	.	.	.	.
1D	.	1B-y	-ter-	1dd	-ter-
=8	=8	=8	=8	=8	=8
1C	-ter-	1c	.	1g	-nae,
2GG	.	2B-y	.	2r	.
2BB-y	.	1G	.	2g	[ae-
1AA	.	.	.	1a	-ter-
.	.	2F#i	.	.	.
=9	=9	=9	=9	=9	=9
1.GG	-nae	1G	-nae	2d	-nae]
.	.	.	.	1dd	mi-
.	.	1r	.	.	.
2AA	.	.	.	2cc	-se-
2BB-y	.	1r	.	2b-y	.
2C	.	.	.	2g	.
=10	=10	=10	=10	=10	=10
0.D	mi-	0.F	mi-	2b-y	.
.	.	.	.	1a	.
.	.	.	.	4g	.
.	.	.	.	4f	.
.	.	.	.	2a	.
.	.	.	.	2b-y	.
=11	=11	=11	=11	=11	=11
0C	-se-	0.G	-se-	0cc	.
[1E-X	.	.	.	[1b-y	.
=12	=12	=12	=12	=12	=12
1E-]	.	0.B-y	-ri-	0.b-]	.
0BB-y	-ri-	.	.	.	.
=13	=13	=13	=13	=13	=13
2.F	-cor-	2.c	-cor-	2.a	-ri-
4G	.	4B-y	.	4b-y	.
2F	.	2c	.	2a	.
2D	-di-	1d	.	2f	-cor-
1E	-ae,	.	.	1g	-di-
.	.	2c	.	.	.
=14	=14	=14	=14	=14	=14
1.D	mi-	0.d	.	1f	-ae,
.	.	.	.	2r	.
2BB-y	-se-	.	.	2f	[mi-
1BB-y	-ri-	.	.	[1b-y	.
=15	=15	=15	=15	=15	=15
1.E	-cor-	0.G	-di-	2b-]	.
.	.	.	.	2g	.
.	.	.	.	1g	-se-
2C	-di-	.	.	.	.
1C	-ae,	.	.	[1cc	.
=16	=16	=16	=16	=16	=16
1.F	[mi-	0.A	.	2cc]	.
.	.	.	.	2a	.
.	.	.	.	1a	-ri-
2D	-se-	.	.	.	.
1D	-ri]-	.	.	[1dd	-cor-
=17	=17	=17	=17	=17	=17
1.G	-cor-	0.B-y	.	2dd]	.
.	.	.	.	2b-y	-di-
.	.	.	.	1b-y	-ae,]
2GG	-di-	.	.	.	.
1GG	-ae,	.	.	2r	.
.	.	.	.	2b-y	[mi-
=18	=18	=18	=18	=18	=18
2.C	[mi-	1G	.	2cc	.
.	.	.	.	2g	-se-
4BB-y	.	.	.	.	.
1AA	.	1F	.	2a	-ri-
.	.	.	.	2.cc	-cor-
2GG	-se-	2G	.	.	.
.	.	.	.	4b-y	.
2G	-ri-	2B-y	.	2b-y	.
=19	=19	=19	=19	=19	=19
2.F	-cor-	2A	.	2cc	.
.	.	2.c	.	2.a	-di-
4E	.	.	.	.	.
2C	.	.	.	.	.
.	.	4B-y	.	4g	.
2E	.	2G	.	1g	.
1D	-di]-	1A	.	.	.
.	.	.	.	2f#i	.
=20	=20	=20	=20	=20	=20
00GG	-ae.	00G	-ae.	00g	-ae.]
=21||	=21||	=21||	=21||	=21||	=21||
*M2/1	*	*M2/1	*	*M2/1	*
*met(C|)	*	*met(C|)	*	*met(C|)	*
!!section: Versus 2: Vita, dulcedo
!!!OMD: Versus 2: Vita, dulcedo
0r	.	0r	.	1.dd	Vi-
.	.	.	.	2b-y	.
=22	=22	=22	=22	=22	=22
0r	.	0r	.	2cc	.
.	.	.	.	2dd	.
.	.	.	.	2g	.
.	.	.	.	2b-y	.
=23	=23	=23	=23	=23	=23
0r	.	0r	.	2a	.
.	.	.	.	1g	.
.	.	.	.	2f	.
=24	=24	=24	=24	=24	=24
1G	Vi-	1.d	Vi-	1g	-ta,
2F	.	.	.	1r	.
2G	.	2B-y	.	.	.
=25	=25	=25	=25	=25	=25
2C	-ta,	2c	.	0r	.
2F	vi-	2d	.	.	.
2E	.	2G	.	.	.
2D	.	2B-y	.	.	.
=26	=26	=26	=26	=26	=26
2C	.	2A	.	0r	.
2BB-y	.	1G	.	.	.
1AA	.	.	.	.	.
.	.	2F#i	.	.	.
=27	=27	=27	=27	=27	=27
2GG	.	2G	.	2r	.
2.BB-y	.	2F	.	1dd	dul-
.	.	2B-y	.	.	.
4AA	.	.	.	.	.
2FF	.	2A	.	2cc	.
=28	=28	=28	=28	=28	=28
1GG	.	1G	.	1b-y	-ce-
1D	-ta,	2D	-ta,	[1a	.
.	.	[2d	dul-	.	.
=29	=29	=29	=29	=29	=29
0r	.	2d]	.	1a]	.
.	.	2c	.	.	.
.	.	1B-y	-ce-	1b-y	.
=30	=30	=30	=30	=30	=30
2r	.	0A	.	2cc	.
1D	dul-	.	.	2.a	.
.	.	.	.	4b-y	.
2C	.	.	.	2cc	.
=31	=31	=31	=31	=31	=31
1BB-y	-ce-	1B-y	.	1dd	.
[1AA	.	[1c	.	1cc	-do,
=32	=32	=32	=32	=32	=32
1AA]	.	1c]	.	2r	.
.	.	.	.	2cc	[dul-
1BB-y	.	1B-y	.	1dd	-ce-
=33	=33	=33	=33	=33	=33
1C	.	2G	.	1cc	-do,]
.	.	2A	.	.	.
2BB-y	.	2D	.	1r	.
2GG	.	[2G	.	.	.
=34	=34	=34	=34	=34	=34
1AA	.	2G]	.	2r	.
.	.	2F	.	2a	[dul-
2GG	-do,	2G	-do,	1b-y	-ce-
2G	[dul-	2B-y	dul-	.	.
=35	=35	=35	=35	=35	=35
2F	.	2c	.	1a	-do]
2D	.	1d	.	.	.
1E	-ce-	.	.	1r	.
.	.	2c	.	.	.
=36	=36	=36	=36	=36	=36
2D	-do]	2d	.	[0f	et
1F	et	2.c	-ce-	.	.
.	.	4B-y	.	.	.
2F	spes	4A	.	.	.
.	.	4G	.	.	.
=37	=37	=37	=37	=37	=37
1F	no-	1A	-do	1f]	.
1C	.	2.G	et	[1g	spes
.	.	4A	.	.	.
=38	=38	=38	=38	=38	=38
2.G	.	4B-y	.	0g]	.
.	.	4A	.	.	.
.	.	4G	.	.	.
4A	.	4F	.	.	.
1B-y	.	1G	.	.	.
=39	=39	=39	=39	=39	=39
1BB-y	-stra,	2F	spes	[0b-y	no-
.	.	2.B-y	no-	.	.
2r	.	.	.	.	.
.	.	4c	.	.	.
[2BB-y	[et	[2d	.	.	.
=40	=40	=40	=40	=40	=40
2BB-]	.	2d]	.	1b-]	.
2BB-y	spes	4c	.	.	.
.	.	4B-y	.	.	.
1F	no-	1A	.	[1cc	-stra,
=41	=41	=41	=41	=41	=41
2C	-stra,]	2G	.	0cc]	.
2.C	no-	2c	.	.	.
.	.	1e	.	.	.
4D	.	.	.	.	.
4E	.	.	.	.	.
4F	.	.	.	.	.
=42	=42	=42	=42	=42	=42
2.G	.	1d	-stra,	[0b-y	.
4A	.	.	.	.	.
1B-y	.	2r	.	.	.
.	.	[2d	et	.	.
=43	=43	=43	=43	=43	=43
1BB-y	.	2d]	.	1b-]	.
.	.	2d	spes	.	.
1F	.	2.c	no-	[1cc	.
.	.	4d	.	.	.
=44	=44	=44	=44	=44	=44
1C	-stra,	4e	.	0cc]	.
.	.	4d	.	.	.
.	.	4c	.	.	.
.	.	4B-y	.	.	.
2r	.	1c	.	.	.
2C	sal-	.	.	.	.
=45	=45	=45	=45	=45	=45
1G	.	4B-y	-stra,	[0dd	.
.	.	4c	.	.	.
.	.	4d	.	.	.
.	.	4e	.	.	.
1D	.	2f	.	.	.
.	.	2F	[et	.	.
=46	=46	=46	=46	=46	=46
2BB-y	.	2B-y	spes	1dd]	.
2D	.	2A	no-	.	.
[1C	-ve,	1c	-stra,]	[1g	sal-
=47	=47	=47	=47	=47	=47
0C]	.	2r	.	0g]	.
.	.	2c	sal-	.	.
.	.	2G	.	.	.
.	.	[2c	.	.	.
=48	=48	=48	=48	=48	=48
1F	sal-	1c]	.	1a	.
2.BB-y	.	[1d	.	1b-y	.
4C	.	.	.	.	.
=49	=49	=49	=49	=49	=49
1D	.	2d]	.	1a	.
.	.	2A	.	.	.
2GG	.	2B-y	.	2g	.
[2D	.	2A	.	[2a	.
=50	=50	=50	=50	=50	=50
2D]	.	2F	.	2a]	.
2BB-y	.	2G	.	1g	.
2C	.	1A	.	.	.
2D	.	.	.	2f#i	.
=51	=51	=51	=51	=51	=51
00GG	-ve.	00G	-ve.	00g	-ve.
=52||	=52||	=52||	=52||	=52||	=52||
*M2/1	*	*M2/1	*	*M2/1	*
*met(C|)	*	*met(C|)	*	*met(C|)	*
!!section: Versus 3: Ad te clamamus
!!!OMD: Versus 3: Ad te clamamus
0B-y	Ad	0r	.	0r	.
=53	=53	=53	=53	=53	=53
1G	te	0r	.	0b-y	Ad
1G	cla-	.	.	.	.
=54	=54	=54	=54	=54	=54
2.F	-ma-	0r	.	0cc	.
4G	.	.	.	.	.
1A	.	.	.	.	.
=55	=55	=55	=55	=55	=55
1D	-mus,	0r	.	0dd	te
2r	.	.	.	.	.
[2G	cla-	.	.	.	.
=56	=56	=56	=56	=56	=56
4G]	.	0r	.	1r	.
4A	.	.	.	.	.
2B-y	.	.	.	.	.
2A	.	.	.	1cc	cla-
[2F	-ma-	.	.	.	.
=57	=57	=57	=57	=57	=57
4F]	.	0r	.	1cc	-ma-
4G	.	.	.	.	.
2A	.	.	.	.	.
1G	.	.	.	1b-y	.
=58	=58	=58	=58	=58	=58
1F	-mus,	0r	.	1cc	.
1D	.	.	.	1dd	.
=59	=59	=59	=59	=59	=59
0G	.	0B-y	Ad	0b-y	-mus,
=60	=60	=60	=60	=60	=60
0F	[ad	0c	.	[0a	.
=61	=61	=61	=61	=61	=61
1.D	te	0d	te	0a_	.
2E	.	.	.	.	.
=62	=62	=62	=62	=62	=62
2F	.	1r	.	0a]	.
2G	.	.	.	.	.
2A	.	1c	cla-	.	.
[2F	cla-	.	.	.	.
=63	=63	=63	=63	=63	=63
4F]	.	1c	-ma-	0r	.
4E	.	.	.	.	.
2C	.	.	.	.	.
1D	-ma-	1B-y	.	.	.
=64	=64	=64	=64	=64	=64
1C	.	1c	.	0r	.
1F	.	1d	.	.	.
=65	=65	=65	=65	=65	=65
0G	.	0B-y	-mus,	0r	.
=66	=66	=66	=66	=66	=66
1.F	-mus,]	1A	.	1.cc	e-
.	.	1r	.	.	.
2G	.	.	.	2b-y	-xu-
=67	=67	=67	=67	=67	=67
2A	.	1.c	e-	1a	.
4AA	e-	.	.	.	.
4BB-y	.	.	.	.	.
4C	.	.	.	1g	.
4D	.	.	.	.	.
2E	.	2B-y	-xu-	.	.
=68	=68	=68	=68	=68	=68
1F	-xu-	1A	.	2a	-les,
.	.	.	.	1cc	[e-
2C	-les,	1G	.	.	.
2G	fi-	.	.	2b-y	-xu-
=69	=69	=69	=69	=69	=69
2F	.	2A	.	1cc	-les,]
2E	.	1c	.	.	.
1D	.	.	.	1r	.
.	.	2B-y	.	.	.
=70	=70	=70	=70	=70	=70
2C	.	2c	-les,	0r	.
2BB-y	.	2d	.	.	.
1C	-li-	2G	fi-	.	.
.	.	2A	.	.	.
=71	=71	=71	=71	=71	=71
4BB-y	-i,	1B-y	.	0f	fi-
4C	.	.	.	.	.
4D	.	.	.	.	.
4E	.	.	.	.	.
1F	.	1A	.	.	.
=72	=72	=72	=72	=72	=72
2r	.	2G	.	0g	.
2.C	fi-	1c	.	.	.
4D	.	.	.	.	.
4E	.	2c	-li-	.	.
4F	.	.	.	.	.
=73	=73	=73	=73	=73	=73
2G	.	2B-y	.	0g	-li-
2C	-li-	2c	.	.	.
2G	.	2B-y	.	.	.
2C	.	2c	.	.	.
=74	=74	=74	=74	=74	=74
2F	.	2A	.	0f	.
2BB-y	.	2.B-y	.	.	.
1D	.	.	.	.	.
.	.	4A	.	.	.
.	.	2F	.	.	.
=75	=75	=75	=75	=75	=75
0C	-i	1c	.	0g	-i
.	.	2G	-i	.	.
.	.	2c	E-	.	.
=76	=76	=76	=76	=76	=76
1G	E-	2B-y	.	1b-y	E-
.	.	1d	.	.	.
1A	.	.	.	1cc	.
.	.	2c	.	.	.
=77	=77	=77	=77	=77	=77
1.G	.	1d	.	1b-y	.
.	.	2B-y	.	2g	.
2F	.	2c	.	[2a	.
=78	=78	=78	=78	=78	=78
2D	.	2d	.	2a]	.
2E	.	2G	.	1g	.
1D	.	1A	.	.	.
.	.	.	.	2f#i	.
=79	=79	=79	=79	=79	=79
00GG	-vae.	00G	-vae.	00g	-vae.
=80||	=80||	=80||	=80||	=80||	=80||
*M2/1	*	*M2/1	*	*M2/1	*
*met(C|)	*	*met(C|)	*	*met(C|)	*
!!section: Versus 4: Ad te suspiramus
!!!OMD: Versus 4: Ad te suspiramus
!	!	!	!	!LO:TX:a:t=Bassus not extant mm. 81-232	!
0r	.	2.G	Ad	2.b-y	Ad
.	.	4F	.	4a	.
.	.	2E	.	2g	.
.	.	2D	.	[2f	.
=81	=81	=81	=81	=81	=81
0r	.	0C	te	2f]	.
.	.	.	.	4e	.
.	.	.	.	4d	.
.	.	.	.	1e	.
=82	=82	=82	=82	=82	=82
0r	.	1F	.	1.f	.
.	.	1B-y	.	.	.
.	.	.	.	[2g	.
=83	=83	=83	=83	=83	=83
0r	.	1G	.	4g]	.
.	.	.	.	4f	.
.	.	.	.	4e	.
.	.	.	.	4d	.
.	.	1c	.	1e	te
=84	=84	=84	=84	=84	=84
0r	.	2B-y	.	2r	.
.	.	1A	.	2.d	su-
.	.	.	.	4e	.
.	.	2D	.	4f	.
.	.	.	.	4g	.
=85	=85	=85	=85	=85	=85
0r	.	2F	.	2a	.
.	.	2E	.	2g	-spi-
.	.	1A	.	1cc	-ra-
=86	=86	=86	=86	=86	=86
0r	.	2G	.	2b-y	.
.	.	2F	.	1a	.
.	.	1B-y	.	.	.
.	.	.	.	2g	.
=87	=87	=87	=87	=87	=87
0r	.	1A	su-	0a	-mus,
.	.	1F	.	.	.
=88	=88	=88	=88	=88	=88
0r	.	1G	-spi-	1g	[su-
.	.	2A	-ra-	1e	.
.	.	[2G	.	.	.
=89	=89	=89	=89	=89	=89
0r	.	2G]	.	0f	.
.	.	4F	.	.	.
.	.	4E	.	.	.
.	.	1F	.	.	.
=90	=90	=90	=90	=90	=90
0r	.	1.G	.	1e	-spi-
.	.	.	.	2d	.
.	.	2D	.	[2f	.
=91	=91	=91	=91	=91	=91
0r	.	[0A	-mus,	2f]	.
.	.	.	.	4e	.
.	.	.	.	4d	.
.	.	.	.	1e	.
=92	=92	=92	=92	=92	=92
0r	.	0A]	.	2d	-ra-
.	.	.	.	2.f	.
.	.	.	.	4g	.
.	.	.	.	[2a	.
=93	=93	=93	=93	=93	=93
0r	.	1B-y	.	2a]	.
.	.	.	.	2g	.
.	.	2r	.	1a	-mus,]
.	.	2A	ge-	.	.
=94	=94	=94	=94	=94	=94
0r	.	2D	-men-	2r	.
.	.	2A	.	2a	ge-
.	.	2B-y	.	2g	-men-
.	.	2G	.	[2b-y	.
=95	=95	=95	=95	=95	=95
0r	.	1B-y	.	4b-]	.
.	.	.	.	4a	.
.	.	.	.	1g	.
.	.	1A	.	.	.
.	.	.	.	2f#i	.
=96	=96	=96	=96	=96	=96
0r	.	2G	-tes	1g	-tes
.	.	2.c	et	.	.
.	.	.	.	[1a	et
.	.	4B-y	.	.	.
.	.	4A	.	.	.
.	.	4G	.	.	.
=97	=97	=97	=97	=97	=97
0r	.	2A	.	2a]	.
.	.	2c	flen-	2g	.
.	.	1d	.	1f	flen-
=98	=98	=98	=98	=98	=98
0r	.	1G	-tes,	0e	.
.	.	2r	.	.	.
.	.	2G	ge-	.	.
=99	=99	=99	=99	=99	=99
0r	.	1B-y	-men-	1d	-tes,
.	.	1c	-tes	2r	.
.	.	.	.	2a	ge-
=100	=100	=100	=100	=100	=100
0r	.	0r	.	2.b-y	-men-
.	.	.	.	4g	.
.	.	.	.	2b-y	.
.	.	.	.	[2a	.
=101	=101	=101	=101	=101	=101
0r	.	2r	.	2a]	.
.	.	2G	et	2g	.
.	.	2F	flen-	[1a	-tes
.	.	4D	.	.	.
.	.	4E	.	.	.
=102	=102	=102	=102	=102	=102
0r	.	4F	.	1a]	.
.	.	4G	.	.	.
.	.	1A	.	.	.
.	.	.	.	1b-y	et
.	.	2G	.	.	.
=103	=103	=103	=103	=103	=103
0r	.	1A	.	1cc	flen-
.	.	[1B-y	.	[1dd	.
=104	=104	=104	=104	=104	=104
0r	.	2B-]	.	2dd]	.
.	.	2A	.	2cc	.
.	.	1G	.	1b-y	.
=105	=105	=105	=105	=105	=105
0r	.	0F	-tes	0a	.
=106	=106	=106	=106	=106	=106
0r	.	0G	in	[0g	-tes
=107	=107	=107	=107	=107	=107
0r	.	0G	hac	0g]	.
=108	=108	=108	=108	=108	=108
0r	.	0F	.	0r	.
=109	=109	=109	=109	=109	=109
0r	.	[0B-y	.	1r	.
.	.	.	.	[1g	in
=110	=110	=110	=110	=110	=110
0r	.	0B-_	.	1g]	.
.	.	.	.	1g	hac
=111	=111	=111	=111	=111	=111
0r	.	0B-]	.	1f	.
.	.	.	.	1b-y	.
=112	=112	=112	=112	=112	=112
0r	.	0r	.	1cc	la-
.	.	.	.	[1dd	.
=113	=113	=113	=113	=113	=113
0r	.	1r	.	1dd]	.
.	.	1c	la-	1cc	-cri-
=114	=114	=114	=114	=114	=114
0r	.	0d	.	0b-y	-ma-
=115	=115	=115	=115	=115	=115
0r	.	1c	.	[0a	.
.	.	[1d	.	.	.
=116	=116	=116	=116	=116	=116
0r	.	1d]	.	0a]	.
.	.	1c	-cri-	.	.
=117	=117	=117	=117	=117	=117
0r	.	0B-y	-ma-	0b-y	-rum
=118	=118	=118	=118	=118	=118
0r	.	0A	.	0cc	.
=119	=119	=119	=119	=119	=119
0r	.	0B-y	-rum	0b-y	val-
=120	=120	=120	=120	=120	=120
0r	.	[0c	.	1a	.
.	.	.	.	[1g	.
=121	=121	=121	=121	=121	=121
0r	.	0c]	.	2g]	.
.	.	.	.	4f	.
.	.	.	.	4e	.
.	.	.	.	1f	.
=122	=122	=122	=122	=122	=122
0r	.	0B-y	val-	0g	-le,
=123	=123	=123	=123	=123	=123
0r	.	1A	.	0r	.
.	.	[1G	.	.	.
=124	=124	=124	=124	=124	=124
0r	.	2G]	.	0r	.
.	.	4F	.	.	.
.	.	4E	.	.	.
.	.	1F	.	.	.
=125	=125	=125	=125	=125	=125
0r	.	1G	.	1r	.
.	.	1B-y	.	1b-y	[val-
=126	=126	=126	=126	=126	=126
0r	.	0c	.	1a	.
.	.	.	.	[1g	.
=127	=127	=127	=127	=127	=127
0r	.	0A	.	2g]	.
.	.	.	.	4f#i	.
.	.	.	.	4e	.
.	.	.	.	1f#i	.
=128	=128	=128	=128	=128	=128
00r	.	00G	-le.	00g	-le.]
=129||	=129||	=129||	=129||	=129||	=129||
*M2/1	*	*M2/1	*	*M2/1	*
*met(C|)	*	*met(C|)	*	*met(C|)	*
!!section: Versus 5: Eia ergo
!!!OMD: Versus 5: Eia ergo
0r	.	1B-y	E-	0r	.
.	.	1c	.	.	.
=130	=130	=130	=130	=130	=130
0r	.	1B-y	-ia	1b-y	E-
.	.	1A	.	1cc	.
=131	=131	=131	=131	=131	=131
0r	.	2r	.	1b-y	-ia
.	.	2B-y	er-	.	.
.	.	2c	.	1a	.
.	.	2d	.	.	.
=132	=132	=132	=132	=132	=132
0r	.	2c	.	0cc	er-
.	.	1f	.	.	.
.	.	2e	.	.	.
=133	=133	=133	=133	=133	=133
0r	.	1d	.	0dd	-go,
.	.	4G	.	.	.
.	.	4A	.	.	.
.	.	4B-y	.	.	.
.	.	4c	.	.	.
=134	=134	=134	=134	=134	=134
0r	.	1d	.	0r	.
.	.	2c	.	.	.
.	.	[2c	.	.	.
=135	=135	=135	=135	=135	=135
0r	.	2c]	.	0r	.
.	.	4B-y	.	.	.
.	.	4A	.	.	.
.	.	1B-y	.	.	.
=136	=136	=136	=136	=136	=136
0r	.	1c	-go,	0ff	Ad-
.	.	[1f	Ad-	.	.
=137	=137	=137	=137	=137	=137
0r	.	2f]	.	0cc	-vo-
.	.	2f	-vo-	.	.
.	.	1e	-ca-	.	.
=138	=138	=138	=138	=138	=138
0r	.	1d	-te,	0dd	-ca-
.	.	1r	.	.	.
=139	=139	=139	=139	=139	=139
0r	.	0f	[Ad-	[0cc	.
=140	=140	=140	=140	=140	=140
0r	.	0c	-vo-	0cc]	.
=141	=141	=141	=141	=141	=141
0r	.	0d	-ca-	0b-y	-te
=142	=142	=142	=142	=142	=142
0r	.	[0c	.	0a	.
=143	=143	=143	=143	=143	=143
0r	.	0c]	.	0g	.
=144	=144	=144	=144	=144	=144
0r	.	1.B-y	-te]	0r	.
.	.	[2A	.	.	.
=145	=145	=145	=145	=145	=145
0r	.	2A]	.	0r	.
.	.	1G	.	.	.
.	.	2F	.	.	.
=146	=146	=146	=146	=146	=146
0r	.	0G	.	0r	.
=147	=147	=147	=147	=147	=147
0r	.	1r	.	0r	.
.	.	1c	no-	.	.
=148	=148	=148	=148	=148	=148
0r	.	1A	.	1r	.
.	.	1c	-ster,	1cc	no-
=149	=149	=149	=149	=149	=149
0r	.	1d	.	1a	.
.	.	1r	.	1cc	-ster,
=150	=150	=150	=150	=150	=150
0r	.	2r	.	0dd	.
.	.	1B-y	il-	.	.
.	.	2B-y	-los	.	.
=151	=151	=151	=151	=151	=151
0r	.	1.c	tu-	0r	.
.	.	2B-y	.	.	.
=152	=152	=152	=152	=152	=152
0r	.	2A	.	0r	.
.	.	2c	.	.	.
.	.	2.B-y	.	.	.
.	.	4c	.	.	.
=153	=153	=153	=153	=153	=153
0r	.	1.d	.	2r	.
.	.	.	.	1dd	il-
.	.	4c	.	2dd	-los
.	.	4B-y	.	.	.
=154	=154	=154	=154	=154	=154
0r	.	1A	.	1cc	tu-
.	.	1G	.	1b-y	.
=155	=155	=155	=155	=155	=155
0r	.	2A	-os	1cc	.
.	.	1c	mi-	.	.
.	.	.	.	1dd	.
.	.	2B-y	.	.	.
=156	=156	=156	=156	=156	=156
0r	.	1c	-se-	0a	-os
.	.	1d	-ri-	.	.
=157	=157	=157	=157	=157	=157
0r	.	2.G	-cor-	0r	.
.	.	4A	.	.	.
.	.	1B-y	.	.	.
=158	=158	=158	=158	=158	=158
0r	.	2A	.	1r	.
.	.	2G	.	.	.
.	.	2F	.	2r	.
.	.	[2G	.	2e	mi-
=159	=159	=159	=159	=159	=159
0r	.	2G]	.	2f	-se-
.	.	2F	.	2f	-ri-
.	.	1G	-des	1e	-cor-
=160	=160	=160	=160	=160	=160
0r	.	2.G	o-	1d	-des
.	.	4F	.	.	.
.	.	2E	.	1r	.
.	.	[2D	.	.	.
=161	=161	=161	=161	=161	=161
0r	.	2D]	.	2r	.
.	.	1C	.	2a	o-
.	.	.	.	2b-y	.
.	.	2BB-y	.	2b-y	-cu-
=162	=162	=162	=162	=162	=162
0r	.	0C	.	0a	-los
=163	=163	=163	=163	=163	=163
0r	.	1D	-cu-	2r	.
.	.	.	.	2f	ad
.	.	1C	-los	2.g	.
.	.	.	.	4a	.
=164	=164	=164	=164	=164	=164
0r	.	2r	.	2b-y	.
.	.	2F	ad	2cc	.
.	.	2.G	.	2.b-y	.
.	.	4A	.	4a	.
=165	=165	=165	=165	=165	=165
0r	.	2B-y	.	2f	.
.	.	2c	nos	2a	.
.	.	2B-y	.	1g	nos
.	.	[2d	con-	.	.
=166	=166	=166	=166	=166	=166
0r	.	2d]	.	2f	.
.	.	2c	-ver-	2e	.
.	.	2d	.	1d	.
.	.	2A	.	.	.
=167	=167	=167	=167	=167	=167
0r	.	2B-y	.	2r	.
.	.	2c	.	1g	con-
.	.	1A	.	.	.
.	.	.	.	2f	.
=168	=168	=168	=168	=168	=168
0r	.	1G	.	1g	.
.	.	1A	.	1cc	.
=169	=169	=169	=169	=169	=169
0r	.	1.B-y	.	2.b-y	-ver-
.	.	.	.	4a	.
.	.	.	.	2g	.
.	.	2A	.	[2f	.
=170	=170	=170	=170	=170	=170
0r	.	1G	.	2f]	.
.	.	.	.	2e	.
.	.	1F	.	1f	.
=171	=171	=171	=171	=171	=171
0r	.	0G	.	2.e	.
.	.	.	.	4d	.
.	.	.	.	1e	.
=172	=172	=172	=172	=172	=172
00r	.	00G	-te,	00d	-te,
=173||	=173||	=173||	=173||	=173||	=173||
*M2/1	*	*M2/1	*	*M2/1	*
*met(C|)	*	*met(C|)	*	*met(C|)	*
!!section: Versus 6: et pium
!!!OMD: Versus 6: et pium
0r	.	0G	et	[0dd	et
=174	=174	=174	=174	=174	=174
0r	.	0B-y	pi-	0dd]	.
=175	=175	=175	=175	=175	=175
0r	.	[0c	.	0a	pi-
=176	=176	=176	=176	=176	=176
0r	.	0c]	.	0cc	-um,
=177	=177	=177	=177	=177	=177
0r	.	0B-y	-um,	0dd	.
=178	=178	=178	=178	=178	=178
0r	.	0f	[et	0dd	[et
=179	=179	=179	=179	=179	=179
0r	.	0f	pi-	0cc	pi-
=180	=180	=180	=180	=180	=180
00r	.	00d	-um]	00b-y	-um]
=181||	=181||	=181||	=181||	=181||	=181||
*M2/1	*	*M2/1	*	*M2/1	*
*met(C|)	*	*met(C|)	*	*met(C|)	*
!!section: Versus 7: benedictum Christe
!!!OMD: Versus 7: benedictum Christe
0r	.	0f	be-	0cc	be-
=182	=182	=182	=182	=182	=182
0r	.	1d	-ne-	1b-y	-ne-
.	.	1c	.	1a	.
=183	=183	=183	=183	=183	=183
0r	.	1d	-di-	0f	-di-
.	.	[1c	.	.	.
=184	=184	=184	=184	=184	=184
0r	.	2c]	.	0g	.
.	.	4B-y	.	.	.
.	.	4A	.	.	.
.	.	1B-y	.	.	.
=185	=185	=185	=185	=185	=185
0r	.	0c	-ctum,	[0a	-ctum,
=186	=186	=186	=186	=186	=186
0r	.	1F	[be-	1a]	.
.	.	1G	-ne-	1r	.
=187	=187	=187	=187	=187	=187
0r	.	1A	.	1r	.
.	.	2.B-y	-di-	1f	[be-
.	.	4A	.	.	.
=188	=188	=188	=188	=188	=188
0r	.	1G	.	1g	-ne-
.	.	1F	-ctum,]	1a	.
=189	=189	=189	=189	=189	=189
0r	.	0r	.	2b-y	-di-
.	.	.	.	2a	.
.	.	.	.	1g	.
=190	=190	=190	=190	=190	=190
0r	.	1r	.	1f	-ctum,]
.	.	1f	Chri-	1cc	Chri-
=191	=191	=191	=191	=191	=191
0r	.	1d	-ste,	0b-y	-ste,
.	.	1B-y	.	.	.
=192	=192	=192	=192	=192	=192
0r	.	[0c	.	0a	.
=193	=193	=193	=193	=193	=193
0r	.	0c]	.	0g	.
=194	=194	=194	=194	=194	=194
0r	.	0F	Pa-	1a	Pa-
.	.	.	.	1b-y	.
=195	=195	=195	=195	=195	=195
0r	.	1G	-trem	0cc	-trem
.	.	1A	.	.	.
=196	=196	=196	=196	=196	=196
0r	.	1B-y	.	1.b-y	tu-
.	.	2G	tu-	.	.
.	.	2A	.	2a	.
=197	=197	=197	=197	=197	=197
0r	.	2B-y	.	1g	.
.	.	2c	.	.	.
.	.	1A	.	1f	.
=198	=198	=198	=198	=198	=198
0r	.	1G	-um	1g	-um
.	.	1c	.	1r	.
=199	=199	=199	=199	=199	=199
0r	.	0B-y	no-	0b-y	no-
=200	=200	=200	=200	=200	=200
0r	.	1A	.	0cc	.
.	.	[1G	.	.	.
=201	=201	=201	=201	=201	=201
0r	.	2G]	.	0dd	.
.	.	4F	.	.	.
.	.	4E	.	.	.
.	.	1F	.	.	.
=202	=202	=202	=202	=202	=202
0r	.	1.G	.	0ee-i	.
.	.	2A	.	.	.
=203	=203	=203	=203	=203	=203
0r	.	0B-y	.	0dd	.
=204	=204	=204	=204	=204	=204
0r	.	[0G	-bis	0cc	.
=205	=205	=205	=205	=205	=205
0r	.	0G]	.	[0dd	-bis
=206	=206	=206	=206	=206	=206
0r	.	0r	.	0dd]	.
=207	=207	=207	=207	=207	=207
0r	.	1r	.	0r	.
.	.	1d	post	.	.
=208	=208	=208	=208	=208	=208
0r	.	1c	.	1r	.
.	.	1B-y	.	1dd	post
=209	=209	=209	=209	=209	=209
0r	.	1c	hoc,	1cc	.
.	.	1d	[post	1b-y	.
=210	=210	=210	=210	=210	=210
0r	.	1c	.	1cc	hoc
.	.	1B-y	.	1g	e-
=211	=211	=211	=211	=211	=211
0r	.	1c	hoc]	1a	.
.	.	[1G	e-	[1b-y	-xi-
=212	=212	=212	=212	=212	=212
0r	.	1G]	.	1b-]	.
.	.	1A	.	1a	.
=213	=213	=213	=213	=213	=213
0r	.	1B-y	-xi-	1g	.
.	.	1c	.	1g	-li-
=214	=214	=214	=214	=214	=214
*M3/1	*	*M3/1	*	*M3/1	*
*met(3)	*	*met(3)	*	*met(3)	*
0.r	.	1F	-li-	0f	-um
.	.	0d	.	.	.
.	.	.	.	1r	.
=215	=215	=215	=215	=215	=215
0.r	.	[0.c	-um	0a	o-
.	.	.	.	[1g	.
=216	=216	=216	=216	=216	=216
0.r	.	0.c]	.	1g]	.
.	.	.	.	0a	.
=217	=217	=217	=217	=217	=217
0.r	.	0d	o-	0b-y	.
.	.	[1c	.	1a	.
=218	=218	=218	=218	=218	=218
0.r	.	1c]	.	0g	.
.	.	0d	.	.	.
.	.	.	.	1f	-sten-
=219	=219	=219	=219	=219	=219
0.r	.	0e-i	.	[0.gl	-de.
.	.	1d	.	.	.
=220	=220	=220	=220	=220	=220
0.r	.	0c	.	0.g_	.
.	.	1B-y	-sten-	.	.
=221	=221	=221	=221	=221	=221
0.r	.	0c	.	0.g_	.
.	.	[1B-y	.	.	.
=222	=222	=222	=222	=222	=222
0.r	.	1B-]	.	0.g_	.
.	.	0c	.	.	.
=223	=223	=223	=223	=223	=223
00r	.	00G	-de.	00g]	.
=224||	=224||	=224||	=224||	=224||	=224||
*M2/1	*	*M2/1	*	*M2/1	*
*met(C|)	*	*met(C|)	*	*met(C|)	*
!!section: Versus 8: O, o clemens
!!!OMD: Versus 8: O, o clemens
0r	.	[0A	O	1a	O,
.	.	.	.	2f	.
.	.	.	.	[2a	.
=225	=225	=225	=225	=225	=225
0r	.	0A]	.	2a]	.
.	.	.	.	4g	.
.	.	.	.	4f	.
.	.	.	.	1e	.
=226	=226	=226	=226	=226	=226
0r	.	[0F	.	2d	.
.	.	.	.	2dd	[o]
.	.	.	.	2b-y	.
.	.	.	.	[2dd	.
=227	=227	=227	=227	=227	=227
0r	.	0F]	.	2dd]	.
.	.	.	.	4cc	.
.	.	.	.	4b-y	.
.	.	.	.	2.a	.
.	.	.	.	4b-y	.
=228	=228	=228	=228	=228	=228
0r	.	1G	.	1cc	.
.	.	[1c	.	2g	.
.	.	.	.	[2cc	.
=229	=229	=229	=229	=229	=229
0r	.	0c_	.	4cc]	.
.	.	.	.	4b-y	.
.	.	.	.	4a	.
.	.	.	.	4g	.
.	.	.	.	2a	.
.	.	.	.	4g	.
.	.	.	.	4f	.
=230	=230	=230	=230	=230	=230
0r	.	0c_	.	2e	.
.	.	.	.	2c	.
.	.	.	.	[1cc	cle-
=231	=231	=231	=231	=231	=231
0r	.	1c]	.	1cc]	.
.	.	1B-y	.	1dd	.
=232	=232	=232	=232	=232	=232
0r	.	1G	cle-	0cc	.
.	.	1A	.	.	.
=233	=233	=233	=233	=233	=233
1BB-y	… cle-	1F	.	1.b-y	.
1GG	.	[1G	.	.	.
.	.	.	.	2g	.
=234	=234	=234	=234	=234	=234
0C	.	2G]	.	1.g	.
.	.	2E	.	.	.
.	.	1E	.	.	.
.	.	.	.	2a	.
=235	=235	=235	=235	=235	=235
1.BB-y	.	1F	.	1.b-y	.
.	.	1B-y	.	.	.
2C	.	.	.	4a	.
.	.	.	.	4g	.
=236	=236	=236	=236	=236	=236
2D	.	2A	.	2f	.
2GG	.	2G	.	1g	.
1D	.	1A	.	.	.
.	.	.	.	2f#i	.
=237	=237	=237	=237	=237	=237
00GG	-mens,	00G	-mens,	00g	-mens,
=238||	=238||	=238||	=238||	=238||	=238||
*M2/1	*	*M2/1	*	*M2/1	*
*met(C|)	*	*met(C|)	*	*met(C|)	*
!!section: Versus 9: O, o pie
!!!OMD: Versus 9: O, o pie
1D	o	1A	o,	1dd	o,
2.BB-y	.	1B-y	.	2.dd	.
4C	.	.	.	4cc	.
=239	=239	=239	=239	=239	=239
2D	.	1F	.	2a	.
2BB-y	.	.	.	1b-y	.
2.D	.	2r	.	.	.
.	.	[2F	[o,]	4a	.
4E	.	.	.	4g	.
=240	=240	=240	=240	=240	=240
0F	.	4F]	.	1a	.
.	.	4G	.	.	.
.	.	1A	.	.	.
.	.	.	.	2r	.
.	.	2F	.	2a	o
=241	=241	=241	=241	=241	=241
2.FF	.	2.A	.	2.a	.
4GG	.	4B-y	.	4g	.
2AA	.	4c	.	2e	.
.	.	4B-y	.	.	.
2FF	.	4A	.	[2f	.
.	.	4G	.	.	.
=242	=242	=242	=242	=242	=242
2.AA	.	1A	.	2f]	.
.	.	.	.	4e	.
4BB-y	.	.	.	4d	.
1C	.	1G	.	1e	.
=243	=243	=243	=243	=243	=243
1BB-y	.	2r	.	1f	.
.	.	2B-y	[o,]	.	.
2.GG	.	2.B-y	.	[1b-y	pi-
4AA	.	4A	.	.	.
=244	=244	=244	=244	=244	=244
2BB-y	.	2F	.	0b-]	.
2GG	.	2G	.	.	.
2.BB-y	.	1F	.	.	.
4C	.	.	.	.	.
=245	=245	=245	=245	=245	=245
0D	.	2r	.	[0a	-e,
.	.	2.f	[o,]	.	.
.	.	4e	.	.	.
.	.	[2d	.	.	.
=246	=246	=246	=246	=246	=246
1F	.	2d]	.	0a]	.
.	.	2c	.	.	.
2.D	.	1d	.	.	.
4E	.	.	.	.	.
=247	=247	=247	=247	=247	=247
2F	.	2c	.	2r	.
2D	.	2d	.	2f	o
2.F	.	2A	.	2.a	.
.	.	2d	.	.	.
4G	.	.	.	4b-y	.
=248	=248	=248	=248	=248	=248
1A	.	[0c	.	4cc	.
.	.	.	.	4b-y	.
.	.	.	.	4a	.
.	.	.	.	4g	.
2.AA	.	.	.	1a	.
4BB-y	.	.	.	.	.
=249	=249	=249	=249	=249	=249
1C	.	0c_	.	1g	.
1AA	.	.	.	[1cc	pi-
=250	=250	=250	=250	=250	=250
0A	.	0c]	.	2cc]	.
.	.	.	.	2a	.
.	.	.	.	1a	-e,
=251	=251	=251	=251	=251	=251
1D	.	0d	.	2r	.
.	.	.	.	2a	o
2.BB-y	.	.	.	1b-y	pi-
4C	.	.	.	.	.
=252	=252	=252	=252	=252	=252
2D	.	1r	.	2a	.
2BB-y	.	.	.	2b-y	.
1D	.	1d	[o]	2.a	.
.	.	.	.	4b-y	.
=253	=253	=253	=253	=253	=253
1C	.	1e-X	.	1cc	.
2r	.	2B-y	.	2dd	.
2G	pi-	2G	.	2b-y	.
=254	=254	=254	=254	=254	=254
2E-X	.	2B-y	.	2g	.
2C	.	2c	.	1cc	.
1G	.	1d	.	.	.
.	.	.	.	2bnXi	.
=255	=255	=255	=255	=255	=255
1C	-e,	2r	.	1cc	-e,
.	.	2c	pi-	.	.
2r	.	2A	.	2cc	[pi-
2F	pi-	2F	.	2a	.
=256	=256	=256	=256	=256	=256
2D	.	2A	.	2f	.
2BB-y	.	2B-y	.	1b-y	.
1F	.	1c	.	.	.
.	.	.	.	2a	.
=257	=257	=257	=257	=257	=257
1BB-y	.	1B-y	-e,	1b-y	.
1D	.	2r	.	1a	.
.	.	2F	[pi-	.	.
=258	=258	=258	=258	=258	=258
[0C	.	1A	.	[0cc	.
.	.	1G	.	.	.
=259	=259	=259	=259	=259	=259
0C]	.	0c	.	1cc]	.
.	.	.	.	[1g	.
=260	=260	=260	=260	=260	=260
[0G	.	1G	.	0g]	.
.	.	[1B-y	.	.	.
=261	=261	=261	=261	=261	=261
0G]	.	0B-]	.	0b-y	.
=262	=262	=262	=262	=262	=262
0D	.	2A	.	2.f	.
.	.	2F	.	.	.
.	.	.	.	4g	.
.	.	[1f	.	2a	.
.	.	.	.	2f	.
=263	=263	=263	=263	=263	=263
0F	.	0f]	.	2.a	.
.	.	.	.	4b-y	.
.	.	.	.	[1cc	.
=264	=264	=264	=264	=264	=264
0C	.	0e	.	2cc]	.
.	.	.	.	2b-y	.
.	.	.	.	2a	.
.	.	.	.	2g	.
=265	=265	=265	=265	=265	=265
0F	.	1.f	.	0a	.
.	.	2F	.	.	.
=266	=266	=266	=266	=266	=266
1BB-y	.	1F	.	1b-y	.
2.GG	.	[1B-y	.	2.b-y	.
4AA	.	.	.	4a	.
=267	=267	=267	=267	=267	=267
2BB-y	.	0B-_	.	2f	.
2GG	.	.	.	1g	.
2.BB-y	.	.	.	.	.
.	.	.	.	4f	.
4C	.	.	.	4e	.
=268	=268	=268	=268	=268	=268
[0Dl	-e,	1B-]	.	[0fl	-e,]
.	.	1A	.	.	.
=269	=269	=269	=269	=269	=269
00D]	.	00A	-e,]	00f]	.
=270||	=270||	=270||	=270||	=270||	=270||
*M2/1	*	*M2/1	*	*M2/1	*
*met(C|)	*	*met(C|)	*	*met(C|)	*
!!section: Versus 10: O dulcis Jesu Christe
!!!OMD: Versus 10: O dulcis Jesu Christe
2.D	o	0d	o,	0r	.
4E	.	.	.	.	.
2F	.	.	.	.	.
2G	.	.	.	.	.
=271	=271	=271	=271	=271	=271
1A	.	1c	.	0r	.
1D	.	1d	.	.	.
=272	=272	=272	=272	=272	=272
2.E-X	.	1G	.	0r	.
4D	.	.	.	.	.
2C	.	2A	.	.	.
2BB-y	.	[2B-y	[o,]	.	.
=273	=273	=273	=273	=273	=273
1GG	.	4B-]	.	0r	.
.	.	4A	.	.	.
.	.	1G	.	.	.
1AA	.	.	.	.	.
.	.	2F#i	.	.	.
=274	=274	=274	=274	=274	=274
2GG	.	2G	.	0dd	o
2.D	.	2F	.	.	.
.	.	2A	.	.	.
4C	.	.	.	.	.
2BB-y	.	2B-y	.	.	.
=275	=275	=275	=275	=275	=275
1AA	.	1c	.	1cc	.
1BB-y	.	1B-y	.	1dd	.
=276	=276	=276	=276	=276	=276
2.C	dul-	1r	.	1g	.
4BB-y	.	.	.	.	.
2AA	.	2r	.	2a	.
[2GG	.	[2G	o	[2b-y	.
=277	=277	=277	=277	=277	=277
4GG]	.	4G]	.	4b-]	.
4AA	.	4F	.	4a	.
2BB-y	.	2D	.	1g	.
2C	.	2E	.	.	.
2D	.	2F	.	2f	.
=278	=278	=278	=278	=278	=278
0GG	-cis	1D	.	1g	.
.	.	1d	.	2r	.
.	.	.	.	2g	dul-
=279	=279	=279	=279	=279	=279
0r	.	2c	.	2a	.
.	.	2B-y	.	2b-y	.
.	.	1A	.	1cc	.
=280	=280	=280	=280	=280	=280
0r	.	2r	.	1b-y	.
.	.	2G	dul-	.	.
.	.	2A	.	2cc	.
.	.	2B-y	.	[2dd	.
=281	=281	=281	=281	=281	=281
1r	.	1c	.	2dd]	.
.	.	.	.	2cc	.
2r	.	1B-y	.	1dd	-cis
2D	Je-	.	.	.	.
=282	=282	=282	=282	=282	=282
2C	.	2c	.	0g	Je-
2BB-y	.	1d	.	.	.
1E-X	.	.	.	.	.
.	.	2c	.	.	.
=283	=283	=283	=283	=283	=283
0D	.	0d	-cis	0f	-su
=284	=284	=284	=284	=284	=284
0G	.	0B-y	Je-	0g	.
=285	=285	=285	=285	=285	=285
0F	-su	0c	-su	0a	.
=286	=286	=286	=286	=286	=286
1r	.	1r	.	1r	.
1B-y	Chri-	1G	Chri-	1b-y	Chri-
=287	=287	=287	=287	=287	=287
0A	.	0c	.	0cc	.
=288	=288	=288	=288	=288	=288
0D	.	0d	.	0a	.
=289	=289	=289	=289	=289	=289
0G	.	0B-y	.	0b-y	.
=290	=290	=290	=290	=290	=290
0F	-ste,	0c	.	[0a	-ste.
=291	=291	=291	=291	=291	=291
1r	.	0d	.	0a_	.
1D	[Chri-	.	.	.	.
=292	=292	=292	=292	=292	=292
0F	.	0A	-ste,	0a]	.
=293	=293	=293	=293	=293	=293
0C	-ste,]	1c	[Chri-	[0gl	.
.	.	[1G	.	.	.
=294	=294	=294	=294	=294	=294
1r	.	1G]	.	0g_	.
1BB-y	Chri-	1B-y	-ste,]	.	.
=295	=295	=295	=295	=295	=295
0C	.	1G	Chri-	0g_	.
.	.	1c	.	.	.
=296	=296	=296	=296	=296	=296
00GGl	-ste.	00B-yl	-ste.	00g]	.
==	==	==	==	==	==
*-	*-	*-	*-	*-	*-
!!!system-decoration: [*]
!!!RDF**kern: i = editorial accidental
!!!RDF**kern: l = terminal long
!!!!PTL: <i> New Senfl Edition: Motets for Four Voices (N-V) </i>
!!!PPR: Hollitzer Verlag
!!!PC#: Denkmäler der Tonkunst in Österreich 163.2
!!!PDT: 2022
!!!PED: Scott Lee Edwards, Stefan Gasch, and Sonja Tröster
!!!YEC: Copyright 2022 Denkmäler der Tonkunst in Österreich
!!!YEM: CC-BY-NC 4.0 (https://creativecommons.org/licenses/by-nc/4.0/legalcode)
!!!EED: Benjamin Ory
!!!EEV: 2024/2/14
!!!verovio: header encoded
!!!header-left: @{PTL}\n@{PED}, eds.\n@{PC#} (@{PDT})&nbsp;\n
!!!header-right:
!!!header-center:
